Hatter-kde/actions/22/gnumeric-link-internal.svg

<!DOCTYPE svg>
<svg viewBox="0 0 22 22" version="1.1" xmlns="http://www.w3.org/2000/svg">
    <defs>
        <style type="text/css" id="current-color-scheme">
            .ColorScheme-Highlight {
                color:#3daee9;
            }
            .ColorScheme-Text {
                color:#363636;
            }
        </style>
    </defs>
    <path style="fill:currentColor; fill-opacity:1; stroke:none" d="M 4 19 L 4 2.99805 L 14 2.99805 L 14 3.00785 L 14.0078 2.99805 L 18 6.99023 L 18 19 L 5 19 L 4 19 Z M 5 17.998 L 17 17.998 L 17 7.99805 L 13 7.99805 L 13 3.99805 L 5 3.99805 L 5 17.998 Z M 8 14 L 8 13 L 15 13 L 15 14 L 8 14 Z M 8 11 L 8 10 L 15 10 L 15 11 L 8 11 Z M 8 8 L 8 7 L 12 7 L 12 8 L 8 8 Z" class="ColorScheme-Text"/>
    <path style="fill:currentColor; fill-opacity:1; stroke:none" d="M 6 16 L 6 5 L 12 5 L 12 6 L 7 6 L 7 15 L 16 15 L 16 16 L 6 16 Z" class="ColorScheme-Highlight"/>
</svg>

<?xml version="1.0" encoding="UTF-8"?>
<!DOCTYPE svg>
<svg version="1.1" viewBox="0 0 22 22" xmlns="http://www.w3.org/2000/svg">
 <defs>
  <style id="current-color-scheme" type="text/css">.ColorScheme-Highlight {
                color:#3daee9;
            }
            .ColorScheme-Text {
                color:#363636;
            }</style>
 </defs>
 <path class="ColorScheme-Text" d="m4 19v-16.002h10v0.0098l0.0078-0.0098 3.9922 3.9922v12.01h-13-1zm1-1.002h12v-10h-4v-4h-8v14zm3-3.998v-1h7v1h-7zm0-3v-1h7v1h-7zm0-3v-1h4v1h-4z" fill="currentColor"/>
 <path class="ColorScheme-Highlight" d="m6 16v-11h6v1h-5v9h9v1h-10z" fill="currentColor"/>
</svg>
